icons/outline/brand-blackberry.svg

<svg xmlns="http://www.w3.org/2000/svg" width="24" height="24" viewBox="0 0 24 24" fill="none" stroke="currentColor" stroke-width="2" stroke-linecap="round" stroke-linejoin="round"><path d="M7 6a1 1 0 0 0 -1 -1h-2l-.5 2h2.5a1 1 0 0 0 1 -1z"/><path d="M6 12a1 1 0 0 0 -1 -1h-2l-.5 2h2.5a1 1 0 0 0 1 -1z"/><path d="M13 12a1 1 0 0 0 -1 -1h-2l-.5 2h2.5a1 1 0 0 0 1 -1z"/><path d="M14 6a1 1 0 0 0 -1 -1h-2l-.5 2h2.5a1 1 0 0 0 1 -1z"/><path d="M12 18a1 1 0 0 0 -1 -1h-2l-.5 2h2.5a1 1 0 0 0 1 -1z"/><path d="M20 15a1 1 0 0 0 -1 -1h-2l-.5 2h2.5a1 1 0 0 0 1 -1z"/><path d="M21 9a1 1 0 0 0 -1 -1h-2l-.5 2h2.5a1 1 0 0 0 1 -1z"/></svg>

<svg xmlns="http://www.w3.org/2000/svg" width="24" height="24" fill="none" stroke="currentColor" stroke-linecap="round" stroke-linejoin="round" stroke-width="2"><path d="M7 6a1 1 0 0 0-1-1H4l-.5 2H6a1 1 0 0 0 1-1M6 12a1 1 0 0 0-1-1H3l-.5 2H5a1 1 0 0 0 1-1M13 12a1 1 0 0 0-1-1h-2l-.5 2H12a1 1 0 0 0 1-1M14 6a1 1 0 0 0-1-1h-2l-.5 2H13a1 1 0 0 0 1-1M12 18a1 1 0 0 0-1-1H9l-.5 2H11a1 1 0 0 0 1-1M20 15a1 1 0 0 0-1-1h-2l-.5 2H19a1 1 0 0 0 1-1M21 9a1 1 0 0 0-1-1h-2l-.5 2H20a1 1 0 0 0 1-1"/></svg>
